!!!COM:	Stravinsky
!!!OTL:	373_Str-6/84/4-1[145]1-4
**kern	**kern	**kern	**kern	**kern	**kern	**kern	**kern	**kern	**kern	**kern
*part10	*part9	*part8	*part8	*part7	*part6	*part5	*part4	*part3	*part2	*part1
*staff11	*staff10	*staff9	*staff8	*staff7	*staff6	*staff5	*staff4	*staff3	*staff2	*staff1
*I"Contrabass	*I"Violoncello	*I"Harp	*	*I"Bass Drum	*I"Cymbals	*I"Trumpet in Bb	*I"Bassoon	*I"Cor Anglais	*I"Flute	*I"Piccolo
*I'Cb.	*I'Vc.	*I'Hp.	*	*I'B. D.	*I'Cym.	*I'Tpt.	*I'Bsn.	*I'C. A.	*I'Fl.	*I'Picc.
*clefF4	*clefF4	*clefF4	*clefG2	*clefpercussion0	*clefpercussion0	*clefG2	*clefF4	*clefG2	*clefG2	*clefG2
*k[f#c#g#d#a#]	*k[f#c#g#d#a#]	*k[f#c#g#d#a#]	*k[f#c#g#d#a#]	*	*	*k[f#c#g#d#a#]	*k[f#c#g#d#a#]	*k[f#c#g#d#a#]	*k[f#c#g#d#a#]	*k[f#c#g#d#a#]
*B:	*B:	*B:	*B:	*	*	*B:	*B:	*B:	*B:	*B:
*M3/4	*M3/4	*M3/4	*M3/4	*M3/4	*M3/4	*M3/4	*M3/4	*M3/4	*M3/4	*M3/4
=1	=1	=1	=1	=1	=1	=1	=1	=1	=1	=1
.	.	.	.	.	.	.	.	.	(8qccc#/	.
2.r	8%3r	4DD#	4.ff# 4.ddd#	2.r	2.r	2.r	(4.AA#	(4.e	4ff#') 4ddd#	2.r
.	.	4FF# 4D#	.	.	.	.	.	.	4r	.
.	8%3GG#	.	4.ee#X 4.ccc#	.	.	.	4.GG#	4.d#	.	.
.	.	4FF# 4D#	.	.	.	.	.	.	4ee#X' 4ccc#	.
=2	=2	=2	=2	=2	=2	=2	=2	=2	=2	=2
4.AAA#	8%3r	4EE	8r	2.r	4.r	2.r	4.AA#	4.e	8r	4r
.	.	.	8ee#X 8ccc#	.	.	.	.	.	(8ee#X 8ccc#	.
.	.	4GG#X 4E	8ff#L 8ddd#	.	.	.	.	.	8ff#L 8ddd#	8r
8r	8%3GG#	.	8ee#J 8ccc#	.	4.x	.	4.BB	4.f#	8ee#J 8ccc#	(8ccc#
4r	.	4GG# 4E	8ff#L 8ddd#	.	.	.	.	.	8ccc#L 8ddd#	8aaa#L
.	.	.	8gg#J 8eee#X	.	.	.	.	.	8bbJ) 8eee#X	8ggg#J)
=3	=3	=3	=3	=3	=3	=3	=3	=3	=3	=3
4.AAA#	8%3r	4DD#	8ff#L 8aa#	2.r	4.r	2.r	4.C#	4.g#	8ff#'L 8aa#	8fff#'L
.	.	.	8f#J 8a#	.	.	.	.	.	8ff#'J 8aa#	8fff#'J
.	.	4AA#	8ff#L 8aa#	.	.	.	.	.	8ff#'L 8aa#	8fff#'L
8r	8%3GG#	.	8f#J 8a#	.	4.x	.	4.BB)	4.f#)	8ff#'J 8aa#	8fff#'J
4r	.	4AA#	8ff#L 8aa#	.	.	.	.	.	8ff#'L 8aa#	8fff#'L
.	.	.	8f#J 8a#	.	.	.	.	.	8ff#'J 8aa#	8fff#'J
=4	=4	=4	=4	=4	=4	=4	=4	=4	=4	=4
16%3r	8%3r	4AA#	4.ff# 4.aa#	2.r	16%3r	8r	(16%3AA#~L	(16%3e~L	8ff#' 8aa#	8fff#'
.	.	.	.	.	.	8gg-X	.	.	8r	8r
16%3GGG#	.	.	.	.	16%3x	.	16%3GG#J	16%3d#J	.	.
.	.	4r	.	.	.	8ee-XL	.	.	4r	4r
8r	8%3F#	.	8r	.	8r	8cc#J	4.FF#	4.c#	.	.
4r	.	4r	4r	.	4r	8a-XL	.	.	4r	4r
.	.	.	.	.	.	8e-XJ	.	.	.	.
=5	=5	=5	=5	=5	=5	=5	=5	=5	=5	=5
!!pagebreak:original
4.GGG#	2.r	4DD#	4r	4.x	4.x	2.r	2.GG#)	2.d#)	4r	2.r
.	.	.	.	.	.	.	.	.	(8qccc#/	.
.	.	4FF# 4D#	4ee 4gg# 4ddd#	.	.	.	.	.	4ff#') 4ddd#	.
8r	.	.	.	8r	8r	.	.	.	.	.
.	.	.	.	.	.	.	.	.	(8qccc#/	.
4r	.	4FF# 4D#	4ee 4gg# 4ddd#	4r	4r	.	.	.	4ff#') 4ddd#	.
=6	=6	=6	=6	=6	=6	=6	=6	=6	=6	=6
.	.	.	.	.	.	.	.	.	(8qccc#/	.
4.DD#	4.DD#	4DD#	4.ee 4.gg# 4.ddd#	4.r	4.r	2.r	(4.D#	(4.f# 4.a#	4ff#') 4ddd#	2.r
.	.	4FF# 4D#	.	.	.	.	.	.	4r	.
8r	8r	.	4.dd# 4.ff#	16%3x	16%3r	.	16%3C#L	16%3g#L	.	.
4r	4r	4FF# 4D#	.	.	.	.	.	.	4dd#' 4ff#	.
.	.	.	.	16%3r	16%3x	.	16%3BBJ	16%3f#J	.	.
=7	=7	=7	=7	=7	=7	=7	=7	=7	=7	=7
4.r	2.r	4DD#	4r	2.r	4.r	2.r	4.C#	4.g#	4r	2.r
.	.	.	.	.	.	.	.	.	(8qccc#/	.
.	.	4FF# 4D#	4ee 4gg# 4ddd#	.	.	.	.	.	4ff#') 4ddd#	.
4.BBB	.	.	.	.	4.x	.	4.BB)	4.f#)	.	.
.	.	.	.	.	.	.	.	.	(8qccc#/	.
.	.	4FF# 4D#	4ee 4gg# 4ddd#	.	.	.	.	.	4ff#') 4ddd#	.
=8	=8	=8	=8	=8	=8	=8	=8	=8	=8	=8
.	.	.	.	.	.	.	.	.	(8qccc#/	.
2.r	4.r	4DD#	4.ee 4.gg# 4.ddd#	2.r	4.r	2.r	(4.AA#	(4.e	4ff#') 4ddd#	2.r
.	.	4FF# 4D#	.	.	.	.	.	.	4r	.
.	4.GG#	.	4.dd# 4.ff#	.	4.x	.	4.GG#)	4.d#)	.	.
.	.	4FF# 4D#	.	.	.	.	.	.	4dd#' 4ff#	.
==	==	==	==	==	==	==	==	==	==	==
*-	*-	*-	*-	*-	*-	*-	*-	*-	*-	*-
!!!system-decoration: [(s1,s2,s3,s4)]s5[(s6,s7)]{(s8,s9)}[(s10,s11)]
!!!ONB: Converted from MusicXML on 2019/06/05
